styles/1/Numix/22/places/green-network.svg

<?xml version="1.0" encoding="UTF-8" standalone="no"?>
<!-- Created with Inkscape (http://www.inkscape.org/) -->

<svg
   xmlns:dc="http://purl.org/dc/elements/1.1/"
   xmlns:cc="http://creativecommons.org/ns#"
   xmlns:rdf="http://www.w3.org/1999/02/22-rdf-syntax-ns#"
   xmlns:svg="http://www.w3.org/2000/svg"
   xmlns="http://www.w3.org/2000/svg"
   xmlns:sodipodi="http://sodipodi.sourceforge.net/DTD/sodipodi-0.dtd"
   xmlns:inkscape="http://www.inkscape.org/namespaces/inkscape"
   width="22"
   height="22"
   id="svg2"
   version="1.1"
   inkscape:version="0.91 r"
   sodipodi:docname="green-network.svg"
   inkscape:export-filename="/media/Data/Main/Visuals/Icons/Numix/Desktop/repos/numix-wiki/Gjorgi/Numix-folders/48/New/folder-144.png"
   inkscape:export-xdpi="270"
   inkscape:export-ydpi="270">
  <defs
     id="defs4" />
  <sodipodi:namedview
     id="base"
     pagecolor="#ffffff"
     bordercolor="#666666"
     borderopacity="1.0"
     inkscape:pageopacity="0.0"
     inkscape:pageshadow="2"
     inkscape:zoom="45.206341"
     inkscape:cx="10.207589"
     inkscape:cy="9.2648953"
     inkscape:document-units="px"
     inkscape:current-layer="layer1"
     showgrid="true"
     inkscape:window-width="1280"
     inkscape:window-height="998"
     inkscape:window-x="0"
     inkscape:window-y="0"
     inkscape:window-maximized="1"
     showguides="true"
     inkscape:guide-bbox="true">
    <inkscape:grid
       type="xygrid"
       id="grid2985"
       empspacing="5"
       visible="true"
       enabled="true"
       snapvisiblegridlinesonly="true" />
  </sodipodi:namedview>
  <metadata
     id="metadata7">
    <rdf:RDF>
      <cc:Work
         rdf:about="">
        <dc:format>image/svg+xml</dc:format>
        <dc:type
           rdf:resource="http://purl.org/dc/dcmitype/StillImage" />
        <dc:title />
      </cc:Work>
    </rdf:RDF>
  </metadata>
  <g
     inkscape:label="Layer 1"
     inkscape:groupmode="layer"
     id="layer1"
     transform="translate(0,-1030.3622)">
    <path
       style="font-size:medium;font-style:normal;font-variant:normal;font-weight:normal;font-stretch:normal;text-indent:0;text-align:start;text-decoration:none;line-height:normal;letter-spacing:normal;word-spacing:normal;text-transform:none;direction:ltr;block-progression:tb;writing-mode:lr-tb;text-anchor:start;baseline-shift:baseline;color:#000000;fill:#66bb6a;fill-opacity:1;fill-rule:nonzero;stroke:none;stroke-width:1.52408636;marker:none;visibility:visible;display:inline;overflow:visible;enable-background:accumulate;font-family:Sans;-inkscape-font-specification:Sans"
       d="M 1.625 3 C 1.2775698 3.063 0.99985296 3.3968 1 3.75 L 1 18.25 C 1.00617 18.641 1.3590206 18.9938 1.75 19 L 20.25 19 C 20.640979 18.99 20.99383 18.641 21 18.25 L 21 5.8125 C 20.9938 5.4215 20.640979 5.0062 20.25 5 L 13 5 L 13 3.75 C 12.9938 3.359 12.640979 3.0062 12.25 3 L 1.625 3 z M 10.375 7 L 11 7 C 13.757494 7 16 9.2425 16 12 C 16 14.7573 13.757311 17 10.375 17 C 8.242331 17 6 14.7573 6 12 C 6 9.2425 8.2423279 7 10.375 7 z M 10.4375 7.71875 C 10.243384 7.74425 10.060185 7.79375 9.875 7.84375 L 9.28125 8.78125 C 9.3311582 8.78925 9.404297 8.80675 9.46875 8.84375 C 9.7812503 9.02235 9.910713 9.19675 10 9.21875 C 10.089286 9.24075 10.47768 8.67875 10.1875 9.28125 C 9.8973212 9.88405 9.7723226 10.08475 9.4375 10.21875 C 9.416575 10.22475 9.395681 10.20875 9.375 10.21875 C 9.2894462 10.32135 9.1759337 10.4338 9.03125 10.5625 C 8.7155782 10.844 8.5625 10.87495 8.5625 11.15625 C 8.5625 11.43745 8.5647205 11.65625 8.34375 12.03125 C 8.1227803 12.40625 7.967797 12.4062 8.0625 12.6875 C 8.157204 12.9688 8.2203369 13.4688 8.0625 13.25 C 7.904663 13.0314 7.97002 12.59405 7.84375 12.84375 C 7.7332644 13.06255 7.457362 13.1503 7.4375 13.375 C 7.43469 13.405 7.42957 13.42975 7.4375 13.46875 C 7.439081 13.47475 7.46662 13.49 7.46875 13.5 C 7.5497738 13.7705 8 13.38025 8 13.59375 C 8 13.81235 7.592796 13.8124 7.6875 14 C 7.7822018 14.1874 8.1530782 13.62575 8.46875 13.71875 C 8.7844197 13.81245 8.5908943 13.8749 8.875 14 C 9.1591043 14.1251 9.3125 14.25 9.3125 14.4375 C 9.3125 14.6251 10.18845 14.53105 10.09375 14.84375 C 9.9990483 15.15625 9.9091057 15.0938 9.625 15.4375 C 9.4684903 15.6269 9.341804 15.75275 9.25 15.84375 C 9.3786962 15.93775 9.4118312 15.9875 9.5625 15.9375 C 9.7633887 15.8706 9.4999978 15.7765 9.65625 15.6875 C 9.69531 15.6645 9.726979 15.644 9.75 15.625 C 9.773022 15.606 9.796321 15.5765 9.84375 15.5625 C 9.9386164 15.5335 10.127231 15.5 10.5625 15.5 C 11.433035 15.5 11.84375 15.5625 11.84375 15.5625 C 11.84375 15.5625 12.142859 15.56215 11.875 15.71875 C 11.679259 15.83275 11.2687 16.03975 11.21875 16.09375 C 11.238365 16.09175 11.29353 16.0765 11.34375 16.0625 C 11.745536 15.9509 12.28125 15.8575 12.4375 15.8125 C 12.503706 15.7937 12.870103 15.6299 13.15625 15.5 C 13.16792 15.473 13.17574 15.43325 13.1875 15.40625 L 13.15625 15.40625 C 12.935279 15.31165 12.74936 14.8762 12.8125 14.75 C 12.875634 14.6237 13.029663 14.53445 13.1875 14.21875 C 13.345337 13.90295 13.316941 14.1307 12.875 13.5625 C 12.433058 12.9942 12.220971 13.59555 12 13.40625 C 11.779029 13.21675 11.314403 13.0347 11.125 12.6875 C 10.93559 12.34 11.03125 12.59775 11.03125 12.21875 C 11.03125 11.83955 10.99905 12.1285 11.09375 11.8125 C 11.18845 11.4971 11.434326 11.471 11.75 11.25 C 11.793405 11.218 11.83087 11.17825 11.875 11.15625 C 11.804274 11.08905 11.728418 10.9472 11.53125 10.75 C 11.53125 10.75 11.717163 10.34425 11.875 10.28125 C 12.028194 10.22125 12.105078 10.28475 12.3125 10.34375 C 12.32132 10.30985 12.33415 10.29575 12.34375 10.21875 C 12.375316 9.96605 12.25 10.0952 12.25 9.9375 C 12.25 9.7795 12.31028 9.938 12.53125 9.875 C 12.752223 9.8118 12.747778 9.3735 12.96875 9.4375 C 13.18972 9.5007 13.185596 9.3466 13.375 9.0625 C 13.564404 8.7783 13.377539 8.9388 13.125 8.8125 C 12.872463 8.6862 13.09439 8.99795 13.03125 9.21875 C 12.968117 9.43975 12.783471 9.31715 12.5625 8.84375 C 12.341529 8.37025 12.529981 8.5662 12.65625 8.1875 C 12.67835 8.1209 12.68715 8.07025 12.71875 8.03125 C 12.308223 7.85265 11.872297 7.76175 11.40625 7.71875 C 11.40345 7.74075 11.40875 7.726 11.40625 7.75 C 11.361607 8.1741 11.15179 7.8925 11.0625 7.9375 C 10.973214 7.9821 10.375 8.80775 10.375 8.71875 C 10.375 8.62945 10.46875 8.5 10.46875 8.5 C 10.46875 8.5 10.50852 8.12295 10.4375 7.71875 z M 12.15625 9.40625 C 12.195703 9.39015 12.21794 9.39625 12.25 9.40625 C 12.346182 9.42105 12.4214 9.49975 12.46875 9.59375 C 12.494 9.64475 12.46679 9.6755 12.4375 9.6875 C 12.4375 9.6875 12.5 9.7815 12.5 9.8125 C 12.5 9.8435 12.399944 9.8515 12.25 9.8125 C 12.137547 9.7832 12.23629 9.7435 12.3125 9.6875 L 12.1875 9.6875 C 12.13226 9.6875 12.10706 9.66625 12.09375 9.65625 C 12.10217 9.66225 12.08009 9.6715 12.09375 9.6875 C 12.164776 9.7745 12.102593 9.727 12 9.75 C 11.89741 9.7737 11.98391 9.68075 12.03125 9.59375 C 12.03125 9.59375 12.08201 9.63625 12.09375 9.65625 C 12.11347 9.61275 12.15625 9.51675 12.15625 9.40625 z M 14.625 9.6875 C 14.471163 9.8129583 14.281566 10.062134 14.125 10.21875 C 13.840895 10.50245 14.279663 10.5305 14.4375 10.5625 C 14.595336 10.5935 14.746826 10.46875 15.0625 10.46875 C 15.0569 10.45375 15.03705 10.4525 15.03125 10.4375 C 14.988535 10.4425 14.958 10.46875 14.90625 10.46875 C 14.721148 10.46875 14.83154 10.28335 14.875 10.03125 C 14.812912 9.9095981 14.698192 9.8021747 14.625 9.6875 z M 12.5625 10.25 C 12.51555 10.275175 12.435178 10.3405 12.375 10.375 C 12.460454 10.4996 12.200607 10.84495 12.0625 11.09375 C 12.333213 11.04855 12.743177 11.139 13.6875 11.375 C 13.6875 11.375 14.03061 11.28015 14.09375 11.40625 C 14.11618 11.45025 14.230528 11.45875 14.375 11.46875 C 14.756584 11.31835 14.5625 11.21045 14.5625 10.90625 C 14.5625 10.59055 14.09311 10.93895 14.15625 10.78125 C 14.219385 10.62345 14.095972 10.62725 13.875 10.40625 C 13.654029 10.18525 13.689086 10.9702 13.53125 10.8125 C 13.37341 10.6562 13.37564 10.78245 13.3125 10.65625 C 13.249366 10.52995 13.03125 10.3125 13.03125 10.3125 C 13.03125 10.3125 13.18782 10.4967 13.15625 10.8125 C 13.124682 11.1278 12.6875 10.8125 12.6875 10.8125 C 12.6875 10.8125 12.74873 10.781 12.875 10.75 C 13.001269 10.7184 12.8447 10.5336 12.75 10.3125 C 12.72634 10.2585 12.71659 10.26 12.6875 10.25 L 12.65625 10.25 C 12.622976 10.2399 12.60945 10.224825 12.5625 10.25 z M 15.3125 11.8125 C 15.27742 11.8385 15.23091 11.859 15.1875 11.875 C 14.840259 12.0013 14.59375 12.28125 14.59375 12.28125 C 14.59375 12.28125 14.997243 12.27865 15.28125 12.53125 C 15.30185 12.35925 15.3125 12.1777 15.3125 12 C 15.3125 11.9358 15.3153 11.8765 15.3125 11.8125 z "
       transform="translate(0,1030.3622)"
       id="path3912" />
  </g>
</svg>

<!-- Created with Inkscape (http://www.inkscape.org/) -->
<svg xmlns="http://www.w3.org/2000/svg" viewBox="0 0 22 22">
 <g transform="translate(0,-1030.3622)">
  <path d="m 1.625 3 c -0.347 0.063 -0.625 0.397 -0.625 0.75 l 0 14.5 c 0.006 0.391 0.359 0.744 0.75 0.75 l 18.5 0 c 0.391 -0.01 0.744 -0.359 0.75 -0.75 l 0 -12.438 c -0.006 -0.391 -0.359 -0.806 -0.75 -0.813 l -7.25 0 l 0 -1.25 c -0.006 -0.391 -0.359 -0.744 -0.75 -0.75 l -10.625 0 z m 8.75 4 l 0.625 0 c 2.757 0 5 2.242 5 5 c 0 2.757 -2.243 5 -5.625 5 c -2.133 0 -4.375 -2.243 -4.375 -5 c 0 -2.758 2.242 -5 4.375 -5 z m 0.063 0.719 c -0.194 0.026 -0.377 0.075 -0.563 0.125 l -0.594 0.938 c 0.05 0.008 0.123 0.025 0.188 0.063 c 0.313 0.179 0.442 0.353 0.531 0.375 c 0.089 0.022 0.478 -0.54 0.188 0.063 c -0.29 0.603 -0.415 0.803 -0.75 0.938 c -0.021 0.006 -0.042 -0.01 -0.063 0 c -0.086 0.103 -0.199 0.215 -0.344 0.344 c -0.316 0.281 -0.469 0.312 -0.469 0.594 c 0 0.281 0.002 0.5 -0.219 0.875 c -0.221 0.375 -0.376 0.375 -0.281 0.656 c 0.095 0.281 0.158 0.781 0 0.563 c -0.158 -0.219 -0.092 -0.656 -0.219 -0.406 c -0.11 0.219 -0.386 0.307 -0.406 0.531 c -0.003 0.03 -0.008 0.055 0 0.094 c 0.002 0.006 0.029 0.021 0.031 0.031 c 0.081 0.271 0.531 -0.12 0.531 0.094 c 0 0.219 -0.407 0.219 -0.313 0.406 c 0.095 0.187 0.466 -0.374 0.781 -0.281 c 0.316 0.094 0.122 0.156 0.406 0.281 c 0.284 0.125 0.438 0.25 0.438 0.438 c 0 0.188 0.876 0.094 0.781 0.406 c -0.095 0.313 -0.185 0.25 -0.469 0.594 c -0.157 0.189 -0.283 0.315 -0.375 0.406 c 0.129 0.094 0.162 0.144 0.313 0.094 c 0.201 -0.067 -0.063 -0.161 0.094 -0.25 c 0.039 -0.023 0.071 -0.043 0.094 -0.063 c 0.023 -0.019 0.046 -0.049 0.094 -0.063 c 0.095 -0.029 0.283 -0.063 0.719 -0.063 c 0.871 0 1.281 0.063 1.281 0.063 c 0 0 0.299 0 0.031 0.156 c -0.196 0.114 -0.606 0.321 -0.656 0.375 c 0.02 -0.002 0.075 -0.017 0.125 -0.031 c 0.402 -0.112 0.938 -0.205 1.094 -0.25 c 0.066 -0.019 0.433 -0.183 0.719 -0.313 c 0.012 -0.027 0.019 -0.067 0.031 -0.094 l -0.031 0 c -0.221 -0.095 -0.407 -0.53 -0.344 -0.656 c 0.063 -0.126 0.217 -0.216 0.375 -0.531 c 0.158 -0.316 0.129 -0.088 -0.313 -0.656 c -0.442 -0.568 -0.654 0.033 -0.875 -0.156 c -0.221 -0.19 -0.686 -0.372 -0.875 -0.719 c -0.189 -0.348 -0.094 -0.09 -0.094 -0.469 c 0 -0.379 -0.032 -0.09 0.063 -0.406 c 0.095 -0.315 0.341 -0.341 0.656 -0.563 c 0.043 -0.032 0.081 -0.072 0.125 -0.094 c -0.071 -0.067 -0.147 -0.209 -0.344 -0.406 c 0 0 0.186 -0.406 0.344 -0.469 c 0.153 -0.06 0.23 0.004 0.438 0.063 c 0.009 -0.034 0.022 -0.048 0.031 -0.125 c 0.032 -0.253 -0.094 -0.124 -0.094 -0.281 c 0 -0.158 0.06 0.001 0.281 -0.063 c 0.221 -0.063 0.217 -0.502 0.438 -0.438 c 0.221 0.063 0.217 -0.091 0.406 -0.375 c 0.189 -0.284 0.003 -0.124 -0.25 -0.25 c -0.253 -0.126 -0.031 0.185 -0.094 0.406 c -0.063 0.221 -0.248 0.098 -0.469 -0.375 c -0.221 -0.473 -0.033 -0.278 0.094 -0.656 c 0.022 -0.067 0.031 -0.117 0.063 -0.156 c -0.411 -0.179 -0.846 -0.269 -1.313 -0.313 c -0.003 0.022 0.002 0.007 0 0.031 c -0.045 0.424 -0.254 0.143 -0.344 0.188 c -0.089 0.045 -0.688 0.87 -0.688 0.781 c 0 -0.089 0.094 -0.219 0.094 -0.219 c 0 0 0.04 -0.377 -0.031 -0.781 z m 1.719 1.688 c 0.039 -0.016 0.062 -0.01 0.094 0 c 0.096 0.015 0.171 0.094 0.219 0.188 c 0.025 0.051 -0.002 0.082 -0.031 0.094 c 0 0 0.063 0.094 0.063 0.125 c 0 0.031 -0.1 0.039 -0.25 0 c -0.112 -0.029 -0.014 -0.069 0.063 -0.125 l -0.125 0 c -0.055 0 -0.08 -0.021 -0.094 -0.031 c 0.008 0.006 -0.014 0.015 0 0.031 c 0.071 0.087 0.009 0.04 -0.094 0.063 c -0.103 0.024 -0.016 -0.069 0.031 -0.156 c 0 0 0.051 0.043 0.063 0.063 c 0.02 -0.043 0.063 -0.139 0.063 -0.25 z m 2.469 0.281 c -0.154 0.125 -0.343 0.375 -0.5 0.531 c -0.284 0.284 0.155 0.312 0.313 0.344 c 0.158 0.031 0.309 -0.094 0.625 -0.094 c -0.006 -0.015 -0.025 -0.016 -0.031 -0.031 c -0.043 0.005 -0.073 0.031 -0.125 0.031 c -0.185 0 -0.075 -0.185 -0.031 -0.438 c -0.062 -0.122 -0.177 -0.229 -0.25 -0.344 z m -2.063 0.563 c -0.047 0.025 -0.127 0.091 -0.188 0.125 c 0.085 0.125 -0.174 0.47 -0.313 0.719 c 0.271 -0.045 0.681 0.045 1.625 0.281 c 0 0 0.343 -0.095 0.406 0.031 c 0.022 0.044 0.137 0.053 0.281 0.063 c 0.382 -0.15 0.188 -0.258 0.188 -0.563 c 0 -0.316 -0.469 0.033 -0.406 -0.125 c 0.063 -0.158 -0.06 -0.154 -0.281 -0.375 c -0.221 -0.221 -0.186 0.564 -0.344 0.406 c -0.158 -0.156 -0.156 -0.03 -0.219 -0.156 c -0.063 -0.126 -0.281 -0.344 -0.281 -0.344 c 0 0 0.157 0.184 0.125 0.5 c -0.032 0.315 -0.469 0 -0.469 0 c 0 0 0.061 -0.031 0.188 -0.063 c 0.126 -0.032 -0.03 -0.216 -0.125 -0.438 c -0.024 -0.054 -0.033 -0.053 -0.063 -0.063 l -0.031 0 c -0.033 -0.01 -0.047 -0.025 -0.094 0 z m 2.75 1.563 c -0.035 0.026 -0.082 0.046 -0.125 0.063 c -0.347 0.126 -0.594 0.406 -0.594 0.406 c 0 0 0.403 -0.003 0.688 0.25 c 0.021 -0.172 0.031 -0.354 0.031 -0.531 c 0 -0.064 0.003 -0.123 0 -0.188 z" transform="translate(0,1030.3622)" style="visibility:visible;fill:#66bb6a;fill-opacity:1;stroke:none;display:inline;color:#000;fill-rule:nonzero"/>
 </g>
</svg>
